icons/craftcms.svg

<?xml version="1.0" encoding="UTF-8"?>
<svg width="512px" height="125px" viewBox="0 0 512 125" version="1.1" xmlns="http://www.w3.org/2000/svg" xmlns:xlink="http://www.w3.org/1999/xlink" preserveAspectRatio="xMidYMid">
    <g>
        <path d="M177.359477,75.8033533 C168.920717,75.8033533 164.264848,70.4200058 165.428815,62.7087244 C166.738278,54.8519467 173.140097,49.614095 181.433362,49.614095 C185.798238,49.614095 189.726627,51.6510374 192.054561,54.706451 L200.20233,48.0136403 C195.837454,43.0667805 189.581131,40.5933504 182.888321,40.5933504 C169.211708,40.5933504 157.281046,49.7595908 155.244104,62.7087244 C153.207161,75.8033533 161.936914,84.8240979 175.759023,84.8240979 C182.742825,84.8240979 189.726627,81.9141805 195.837454,77.1128165 L190.017619,70.4200058 C185.798238,74.2028987 181.433362,75.8033533 177.359477,75.8033533 M232.065928,41.0298381 C232.065928,41.0298381 230.319978,40.7388462 230.174482,40.7388462 C228.283035,40.4478546 226.246093,40.5933504 224.354647,40.7388462 C222.608696,40.8843424 220.862746,41.1753339 219.116795,41.7573174 C217.661836,42.1938051 216.061381,42.7757886 214.751919,43.648764 L215.04291,41.6118216 L205.149191,41.6118216 L198.45638,83.8056267 L208.3501,83.8056267 L212.278489,59.2168231 C212.423984,57.7618642 213.005968,56.4524014 213.733448,55.2884345 C214.460927,54.1244671 215.479398,53.1059963 216.643365,52.3785167 C217.807332,51.5055416 218.971299,50.9235578 220.280762,50.4870704 C221.590225,50.0505827 222.899688,49.7595908 224.354647,49.614095 C226.246093,49.4685992 228.283035,49.614095 230.174482,50.0505827 C230.174482,50.0505827 230.319978,50.0505827 230.319978,50.0505827 C230.610969,50.0505827 232.065928,41.0298381 232.065928,41.0298381 M266.693948,44.2307475 C263.929526,41.9028135 259.710146,40.5933504 254.763286,40.5933504 C242.396136,40.5933504 231.192953,49.4685992 229.010515,62.5632282 C226.973572,75.6578576 235.55783,84.533106 247.488492,84.533106 C252.871839,84.533106 257.382211,83.8056267 261.165104,81.1867009 L260.874112,83.5146352 L269.894857,83.5146352 L276.442172,41.6118216 L267.130435,41.6118216 L266.693948,44.2307475 Z M264.657005,62.5632282 L264.657005,62.5632282 C263.347543,70.5655016 257.382211,76.0943453 249.67093,76.0943453 C241.814152,76.0943453 237.30378,70.27451 238.613243,62.4177324 C239.922706,54.5609548 246.179028,49.0321115 253.89031,49.0321115 C261.601592,49.1776073 265.820972,54.5609548 264.657005,62.5632282 L264.657005,62.5632282 Z M322.127878,41.6118216 L324.019324,29.6811595 L312.670646,37.8289288 L312.088662,41.7573174 L299.285025,41.7573174 L300.594487,33.7550441 C301.321967,29.9721512 305.395852,30.1176471 305.395852,30.1176471 L310.197216,30.1176471 L311.652174,21.3878943 L306.123331,21.3878943 L304.813868,21.3878943 C291.282751,21.3878943 290.846264,31.8635977 290.846264,31.8635977 L289.973289,36.8104576 L289.245809,41.7573174 L288.372834,41.7573174 L277.315147,50.4870704 L287.79085,50.4870704 L281.09804,93.1173632 L291.282751,93.1173632 L297.975562,50.3415743 L310.779199,50.3415743 L305.541348,83.8056267 L315.580563,83.8056267 L320.818415,50.3415743 L333.331061,50.3415743 L334.78602,41.6118216 L322.127878,41.6118216 Z M349.044616,62.7087244 C351.081558,49.7595908 362.866724,40.5933504 376.688833,40.5933504 C383.381642,40.5933504 389.637967,43.2122763 394.002841,48.0136403 L385.855074,54.706451 C383.527139,51.6510374 379.598749,49.614095 375.233875,49.614095 C366.940608,49.614095 360.53879,54.9974425 359.229327,62.7087244 C358.06536,70.4200058 362.721228,75.8033533 371.159988,75.8033533 C375.233875,75.8033533 379.598749,74.2028987 383.818133,70.4200058 L389.637967,77.1128165 C383.527139,82.0596763 376.543336,84.8240979 369.559534,84.8240979 C355.737426,84.8240979 347.007673,75.8033533 349.044616,62.7087244 M466.896279,58.1983519 L462.967889,83.8056267 L453.074171,83.8056267 L457.002557,58.9258312 C458.021028,53.1059963 454.820119,49.614095 449.145781,49.614095 C443.180449,49.614095 437.215117,53.2514921 436.342143,59.2168231 L432.413753,83.8056267 L422.520035,83.8056267 L426.448425,58.9258312 C427.321399,53.2514921 423.974993,49.7595908 418.591645,49.614095 C413.062804,49.9050869 406.660985,53.3969879 405.788007,59.2168231 L401.859621,83.8056267 L391.965899,83.8056267 L398.658712,41.6118216 L408.55243,41.6118216 L408.26144,43.648764 C411.607842,41.6118216 415.390735,40.7388462 420.1921,40.5933504 L421.065077,40.5933504 C427.175902,40.5933504 432.122763,43.0667805 434.741688,47.2861611 C438.815572,43.0667805 445.071897,40.5933504 451.328219,40.5933504 C462.094915,40.5933504 468.64223,47.7226484 466.896279,58.1983519 M466.459792,78.7132711 L472.570617,71.1474851 C475.917023,73.766411 482.318842,75.8033533 487.70219,75.8033533 C492.649051,75.8033533 497.595908,74.7848821 498.177892,71.438477 C498.614379,68.8195511 493.813015,67.9465757 488.429667,67.0736007 C477.226484,65.1821541 471.552146,62.8542201 472.716114,54.415459 C474.462065,43.7942598 485.374254,40.7388462 494.394999,40.7388462 C500.796817,40.7388462 507.48963,42.9212844 512,45.9766979 L505.889175,53.5424836 C502.397272,51.3600455 497.886902,49.7595908 492.794544,49.7595908 C486.829212,49.7595908 483.337313,51.5055416 482.900826,54.2699633 C482.609832,56.1614095 484.210287,56.8888891 491.194089,58.0528561 C501.378801,59.7988066 509.817561,61.3992612 508.217107,71.1474851 C506.907646,80.0227339 497.886902,84.9695937 486.101735,84.9695937 C479.554419,84.8240979 471.115659,82.496164 466.459792,78.7132711 M111.304348,0 L13.0946292,0 C5.81983519,0 0,5.81983519 0,13.0946292 L0,111.304348 C0,118.579142 5.81983519,124.398977 13.0946292,124.398977 L111.304348,124.398977 C118.433646,124.398977 124.398977,118.579142 124.398977,111.304348 L124.398977,13.0946292 C124.398977,5.81983519 118.579142,0 111.304348,0 M61.9812447,75.8033533 C66.0551295,75.8033533 70.4200058,74.2028987 74.6393864,70.4200058 L80.4592216,77.1128165 C74.3483944,82.0596763 67.3645922,84.8240979 60.38079,84.8240979 C46.5586814,84.8240979 37.8289288,75.6578576 39.8658712,62.7087244 C41.9028135,49.7595908 53.6879798,40.5933504 67.5100884,40.5933504 C74.2028987,40.5933504 80.4592216,43.2122763 84.8240979,48.0136403 L76.6763288,54.706451 C74.3483944,51.6510374 70.4200058,49.614095 66.0551295,49.614095 C57.7618642,49.614095 51.3600455,54.9974425 50.0505827,62.7087244 C48.8866157,70.4200058 53.5424836,75.8033533 61.9812447,75.8033533" fill="#E5422B" fill-rule="nonzero"></path>
    </g>
</svg>

<svg xmlns="http://www.w3.org/2000/svg" viewBox="0 0 512 124.399">
  <path fill="#e5422b" d="M177.36 75.803c-8.44 0-13.095-5.383-11.931-13.094 1.31-7.857 7.711-13.095 16.004-13.095 4.365 0 8.294 2.037 10.622 5.092l8.147-6.692c-4.365-4.947-10.62-7.42-17.314-7.42-13.676 0-25.607 9.166-27.644 22.115-2.037 13.094 6.693 22.115 20.515 22.115 6.984 0 13.968-2.91 20.078-7.711l-5.82-6.693c-4.219 3.783-8.584 5.383-12.658 5.383m54.707-34.773s-1.746-.291-1.892-.291c-1.891-.291-3.928-.146-5.82 0-1.745.145-3.491.436-5.237 1.018-1.455.437-3.056 1.019-4.365 1.892l.29-2.037h-9.893l-6.693 42.194h9.894l3.928-24.59c.146-1.454.728-2.764 1.455-3.928a9.26 9.26 0 0 1 2.91-2.91 12.414 12.414 0 0 1 3.638-1.89 18.423 18.423 0 0 1 4.074-.874c1.891-.145 3.928 0 5.82.437h.145c.291 0 1.746-9.021 1.746-9.021m34.628 3.2c-2.764-2.327-6.984-3.637-11.93-3.637-12.368 0-23.571 8.876-25.753 21.97-2.037 13.095 6.547 21.97 18.477 21.97 5.384 0 9.894-.727 13.677-3.346l-.29 2.328h9.02l6.547-41.903h-9.312zm-2.037 18.333c-1.31 8.003-7.275 13.531-14.986 13.531-7.857 0-12.367-5.82-11.058-13.676 1.31-7.857 7.566-13.386 15.277-13.386 7.712.146 11.931 5.529 10.767 13.531zm57.47-20.951 1.892-11.93-11.348 8.147-.582 3.928h-12.804l1.31-8.002c.727-3.783 4.8-3.637 4.8-3.637h4.802l1.455-8.73h-6.839c-13.53 0-13.967 10.476-13.967 10.476l-.873 4.946-.727 4.947h-.873l-11.058 8.73h10.476l-6.693 42.63h10.185l6.693-42.775h12.803l-5.238 33.464h10.04l5.237-33.464h12.513l1.455-8.73zm26.918 21.097c2.037-12.95 13.822-22.116 27.644-22.116 6.693 0 12.949 2.62 17.314 7.42l-8.148 6.693c-2.328-3.055-6.256-5.092-10.621-5.092-8.293 0-14.695 5.383-16.005 13.095-1.164 7.711 3.492 13.094 11.931 13.094 4.074 0 8.439-1.6 12.658-5.383l5.82 6.693c-6.11 4.947-13.095 7.711-20.078 7.711-13.823 0-22.552-9.02-20.515-22.115m117.851-4.51-3.928 25.607h-9.894l3.929-24.88c1.018-5.82-2.183-9.312-7.857-9.312-5.966 0-11.93 3.637-12.804 9.603l-3.928 24.589h-9.894l3.928-24.88c.873-5.675-2.473-9.166-7.856-9.312-5.53.291-11.931 3.783-12.804 9.603l-3.928 24.589h-9.894l6.693-42.194h9.893l-.29 2.037c3.346-2.037 7.129-2.91 11.93-3.056h.873c6.11 0 11.058 2.474 13.677 6.693 4.074-4.22 10.33-6.693 16.586-6.693 10.767 0 17.314 7.13 15.568 17.605m-.436 20.515 6.11-7.566c3.347 2.62 9.749 4.656 15.132 4.656 4.947 0 9.894-1.018 10.476-4.365.436-2.618-4.365-3.491-9.748-4.364-11.204-1.892-16.878-4.22-15.714-12.659 1.746-10.62 12.658-13.676 21.679-13.676 6.402 0 13.095 2.182 17.605 5.238l-6.11 7.565c-3.493-2.182-8.003-3.782-13.095-3.782-5.966 0-9.458 1.746-9.894 4.51-.291 1.891 1.31 2.619 8.293 3.783 10.185 1.746 18.624 3.346 17.023 13.094-1.31 8.876-10.33 13.823-22.115 13.823-6.548-.146-14.986-2.474-19.642-6.257M111.304 0h-98.21A13.04 13.04 0 0 0 0 13.095v98.21a13.04 13.04 0 0 0 13.095 13.094h98.21c7.129 0 13.094-5.82 13.094-13.095v-98.21A13.04 13.04 0 0 0 111.304 0M61.981 75.803c4.074 0 8.439-1.6 12.658-5.383l5.82 6.693c-6.11 4.947-13.094 7.711-20.078 7.711-13.822 0-22.552-9.166-20.515-22.115 2.037-12.95 13.822-22.116 27.644-22.116 6.693 0 12.95 2.62 17.314 7.42l-8.148 6.693c-2.328-3.055-6.256-5.092-10.62-5.092-8.294 0-14.696 5.383-16.005 13.095-1.164 7.711 3.491 13.094 11.93 13.094"/>
</svg>
